!!!COM: Bach, Johann Sebastian
!!!CDT: 1685/3//-1750/7/28/
!!!OTL@@DE: Herr Christ, der ein'ge Gott's Sohn
!!!AGN: 4-Part Chorale
!!!SCT: BH 101
!!!SCT: BWV 164
**harm	**root	**kern	**kern	**kern	**kern
*	*Iorgan	*Iorgan	*Iorgan	*Iorgan	*Iorgan
!	!	!bass	!tenor	!alto	!soprno
*M4/4	*M4/4	*M4/4	*M4/4	*M4/4	*M4/4
*met(c)	*met(c)	*met(c)	*met(c)	*met(c)	*met(c)
*MM60	*MM60	*MM60	*MM60	*MM60	*MM60
*k[f#c#]	*k[f#c#]	*k[f#c#]	*k[f#c#]	*k[f#c#]	*k[f#c#]
*D:	*D:	*D:	*D:	*D:	*D:
*>[A,A,B]	*>[A,A,B]	*>[A,A,B]	*>[A,A,B]	*>[A,A,B]	*>[A,A,B]
*>A	*>A	*>A	*>A	*>A	*>A
I	4BB-	4d	4f#	4a	4dd
=1	=1	=1	=1	=1	=1
IV	4EE-	4G	4g	8b	8dd
.	.	.	.	8cc#	8ee
I	4BB-	4D	4a	4dd	4ff#
V	4FF	4A	8a	4cc#	4ee
.	.	.	8g	.	.
vi	4GG	4B	4f#	4b	4dd
=2	=2	=2	=2	=2	=2
viio7b	4AA	4E	4g	4b	2cc#
V/vi	4DD	4F#	8f#	4a#	.
.	.	.	8e	.	.
IV;	4EE-;	4G;	4d;	4b;	4b;
vi	4GG	4B	4d	4b	4ff#
=3	=3	=3	=3	=3	=3
ii7	4CC	4E	4d	4b	4gg
V	4FF	8A	4c#	4a	4ee
.	.	8G	.	.	.
Ib	4BB-	8F#	4d	4a	4ff#
.	.	8G	.	.	.
V	4FF	4A	8d	4a	4ee
.	.	.	8c#	.	.
=4	=4	=4	=4	=4	=4
I;	2.BB-;	2.D;	2.f#;	2.a;	2.dd;
*>B	*>B	*>B	*>B	*>B	*>B
=:|!	=:|!	=:|!	=:|!	=:|!	=:|!
I	4BB-	4D	8f#	4a	8dd
.	.	.	8g	.	8ee
!!linebreak: 2
=5	=5	=5	=5	=5	=5
I	4BB-	8d	4a	4dd	4ff#
.	.	8c#	.	.	.
vi	4GG	8B	4b	8dd	4ff#
.	.	8A	.	8cc#	.
IV	4EE-	8G	8b	4b	4gg
.	.	8F#	8a	.	.
ii	4CC	8E	8g	4b	4gg
.	.	8D	8f#	.	.
=6	=6	=6	=6	=6	=6
Vb	4FF	4C#	4e	2a	4aa
I	4BB-	4D	4d	.	8gg
.	.	.	.	.	8ff#
V;	4FF;	4AA;	4c#;	4a;	4ee;
Vb	4FF	4C#	4e	4a	4aa
=7	=7	=7	=7	=7	=7
I	4BB-	8D	4d	4a	4ff#
.	.	8E	.	.	.
Ib	4BB-	8F#	4d	4a	4ff#
.	.	8G	.	.	.
V	8FF	8A	4c#	8a	4ee
viioD7/vi	8FF#	8A#	.	8g	.
vi	8GG	8B	8c#	4f#	4dd
vib	8GG	8D	8B	.	.
=8	=8	=8	=8	=8	=8
viio7b	4AA	8E	4B	8g	2cc#
.	.	8C#	.	8e	.
V/vi	4DD	4F#	4A#	4f#	.
vi;	4GG;	4BB;	4d;	4f#;	4b;
V/ii	4GG	4B	4d#	4b	4ff#
=9	=9	=9	=9	=9	=9
ii	4CC	8e	8e	4b	4gg
.	.	8d	8f#	.	.
V7b	4FF	8c#	8g	4a	4ee
.	.	8A	8c#	.	.
I	4BB-	8d	4dy	8a	4ff#
.	.	8G	.	8b	.
V	4FF	8A	8a	4cc#	4ee
.	.	8AA	8g	.	.
=10	=10	=10	=10	=10	=10
I;	2.BB-;	2.D;	2.f#;	2.a;	2.dd;
==	==	==	==	==	==
*-	*-	*-	*-	*-	*-
!!chor2scor: -l 2 -s 0.6 -o %b.pmx
!!!YEC: Copyright 1994, David Huron
!!!YEC: Changes/Additions 2001 by Craig Stuart Sapp
!!!YEN: United States of America
!!!SMA: 371 Bach Chorales, edited by Ludwig Erk, C.F. Peters
!!!PDT: 1850, 1865
!!!ONB: Harmony and Root analysis done manually
